christmas.trees/img/svg/icon-find.svg

<svg width="19" height="19" viewBox="0 0 19 19" fill="none" xmlns="http://www.w3.org/2000/svg">
<path d="M18.7836 17.739L14.1467 13.1021C15.2993 11.7161 15.9936 9.93633 15.9936 7.99707C15.9936 3.58747 12.4063 0 7.99687 0C3.58737 0 0 3.58747 0 7.99707C0 12.4064 3.58737 15.9936 7.99687 15.9936C9.93603 15.9936 11.7159 15.2993 13.1019 14.1467L17.739 18.7836C17.8832 18.9279 18.0723 19 18.2613 19C18.4503 19 18.6394 18.9279 18.7837 18.7836C19.0722 18.4951 19.0722 18.0275 18.7836 17.739ZM1.47742 7.99707C1.47742 4.40212 4.40202 1.47742 7.99687 1.47742C11.5916 1.47742 14.5161 4.40212 14.5161 7.99707C14.5161 11.5917 11.5916 14.5161 7.99687 14.5161C4.40202 14.5161 1.47742 11.5917 1.47742 7.99707Z" fill="white"/>
</svg>

<svg width="19" height="19" fill="none" xmlns="http://www.w3.org/2000/svg"><path d="M18.784 17.739l-4.637-4.637a7.96 7.96 0 001.847-5.105C15.994 3.587 12.406 0 7.997 0 3.587 0 0 3.587 0 7.997s3.587 7.997 7.997 7.997a7.96 7.96 0 005.105-1.847l4.637 4.637a.736.736 0 001.045 0 .738.738 0 000-1.045zM1.477 7.997a6.527 6.527 0 016.52-6.52 6.527 6.527 0 016.52 6.52 6.526 6.526 0 01-6.52 6.52 6.527 6.527 0 01-6.52-6.52z" fill="#fff"/></svg>
